X: 14
T: Tick Dance Song (c)
C: Anon.
%%abc-version 2.0
%%abcx-abcm2ps-target-version 5.9.1 (29 Sep 2008)
%%abc-creator hum2abc beta
%%abcx-conversion-date 2020/08/10 20:56:09
%%abc-copyright Electronic Copyright 2000 David Huron
%%abc-edited-by David Huron
%%abcx-initial-encoding-date August 27, 2000
%%humdrum-veritas 3947282471
%%humdrum-veritas-data 3603285922
%%linebreak <none>
%%barnumbers 0
L: 1/16
M: 2/4
Q: 1/4=63
K: Ab clef=bass
C2 A,2B,4[M:3/4] | 
C A, A, F,F,4F,4[M:2/4] | 
E, E, C,2F,4[M:3/4] | 
F, G, A, F,F,4F,2 F, z | 
C2 A,2B,4[M:3/4] | 
C A, A, F,F,4F,4[M:2/4] | 
E, E, C,2F,4[M:3/4] | 
F, G, A, F,F,4F,2 F, z[M:2/4] | 
A,2 B,2B,4[M:3/4] | 
B, A A F,F,4F,2 F,2[M:2/4] | 
A,2 C2B,4[M:3/4] | 
B, A, A, F,F,4F,2 F, z[M:2/4] | 
E, E, C,2F,4[M:3/4] | 
F, G, A, F,F,4F,2 F, z[M:2/4] | 
B, z A zB,4[M:3/4] | 
B, A, A, F, F,2 z2 F,2 F, z[M:2/4] | 
E, E, C,2 F,2 F,2[M:3/4] | 
F, G, A, F,2< F,2 E, F,2 F, z[M:2/4] | 
A,2 C2B,4[M:3/4] | 
B, A, A, F,F,4F,2 F, z[M:2/4] | 
E, E, C,2F,4[M:3/4] | 
F, G, A, F,F,4F,2 F, z |]  


